X: 20791
T: Johnny McGoohan's
R: reel
M: 4/4
K: Gmajor
|:D|G2 Bd gdBG|DGBd cAFA|G2 Bd gdBd|cBAG FADF|
GABd gfaf|gedB A2 Bc|(3dcB cA BGAc|BdAc BGG:|
|:A|B2 GA Bdef|gfga gedc|B2 GA BdeB|dBAG EGGA|
BdGA Bdef|gfe^c d2 ef|gbag fagf|ecAF G3:|

